app/assets/v2/images/grants/icons/black.svg

<svg height="23" width="15" xmlns="http://www.w3.org/2000/svg"><g fill-rule="evenodd"><path d="m10.693 15.904-3.142-4.904-3.284 4.904h-3.517c0-.143-.007-.276 0-.408.06-1.141.49-2.118 1.193-2.956a6.286 6.286 0 0 1 1.766-1.444c1.327-.735 2.738-1.025 4.215-.95 1.37.07 2.66.456 3.822 1.243.88.589 1.59 1.346 2.054 2.357.299.64.445 1.326.438 2.043-.002.094-.027.115-.11.115zm-3.21-6.605c-2.379-.008-4.287-2.073-4.28-4.634.009-2.535 1.94-4.585 4.305-4.575 2.365.007 4.277 2.071 4.27 4.615-.005 2.547-1.928 4.598-4.295 4.595z"/><path d="m7.474 20.236-3.474-1.994 3.473 4.758 3.477-4.758-3.478 1.994zm.052-8.236-3.474 5.602 3.474 1.996 3.474-1.994z" fill-rule="nonzero"/></g></svg>

<svg width="15" height="23" xmlns="http://www.w3.org/2000/svg"><g fill="#000" fill-rule="evenodd"><path d="M10.693 15.904L7.551 11l-3.284 4.904H.75c0-.143-.007-.276 0-.408.06-1.141.49-2.118 1.193-2.956a6.286 6.286 0 0 1 1.766-1.444c1.327-.735 2.738-1.025 4.215-.95 1.37.07 2.66.456 3.822 1.243.88.589 1.59 1.346 2.054 2.357.299.64.445 1.326.438 2.043-.002.094-.027.115-.11.115h-3.435zm-3.21-6.605c-2.379-.008-4.287-2.073-4.28-4.634C3.212 2.13 5.143.08 7.508.09c2.365.007 4.277 2.071 4.27 4.615C11.773 7.252 9.85 9.303 7.483 9.3z"/><path d="M7.474 20.236L4 18.242 7.473 23l3.477-4.758-3.478 1.994h.002zM7.526 12l-3.474 5.602 3.474 1.996L11 17.604 7.526 12z" fill-rule="nonzero"/></g></svg>
